X: 19404
T: Jackie Daly's
R: reel
M: 4/4
K: Edorian
GF|"Em"EGB,E "D"DE "D/F#"(3FED|"Em"E2 Bc dBAF|EGB,E "D"D/D/D "A/C#"CD|"Bm7"B,CDE FAGF|
"Em"EBGE "D"DAFD|"Cmaj7"=CDEC "Bm7"B,CDB,|"Am7"A,B,=CE DEFB|1 "Bm7 (D"AF"D/F#)"DF "Em"E2:|2 "Bm7 (D"AF"D/F#)"DF "Em"E3||
|:A|"Em"B=ceg "D"fede|"D/F#"fagf "Em"edBA|"G"GFGA BABc|"D/A"dcde dBAF|
"G"B=cBG "D/F#"ABAF|"Em"GAGE "D"F2 A,/A,/A,|"Am7"A,B,=CE DEFB|1 "Bm7 (D"AF"D/F#)"DF "Em"E3:|2 "Bm7 (D"AF"D/F#)"DF "Em"E2||

